release/img/parking_marker.svg

<svg width="41" height="47" viewBox="0 0 41 47" fill="none" xmlns="http://www.w3.org/2000/svg">
<g clip-path="url(#clip0_468_569)">
<path d="M6.76607 6.48894C14.5766 -0.952042 27.2399 -0.952042 35.0503 6.48894C42.8608 13.9299 42.8608 25.9941 35.0503 33.4351L20.9082 46.9082L6.76607 33.4351C-1.04442 25.9941 -1.04442 13.9299 6.76607 6.48894Z" fill="#FF4433"/>
<path d="M8.29496 7.94598C15.2612 1.30935 26.5556 1.30935 33.5218 7.94598C40.488 14.5826 40.488 25.3427 33.5218 31.9793C26.5556 38.616 15.2612 38.616 8.29496 31.9793C1.32876 25.3427 1.32876 14.5826 8.29496 7.94598Z" fill="white"/>
<path d="M22.481 14.8875H17.8292V21.3175H22.481C23.5464 21.3175 24.4407 21.0034 25.1636 20.3752C25.8866 19.747 26.2481 18.9709 26.2481 18.0471C26.2481 17.1417 25.8866 16.3934 25.1636 15.8021C24.4597 15.1923 23.5655 14.8875 22.481 14.8875ZM22.481 24.8651H17.8292V30.7409H14.1191V11.3398H22.7664C24.8212 11.3398 26.5335 11.9773 27.9034 13.2522C29.2732 14.5272 29.9582 16.1254 29.9582 18.0471C29.9582 19.9502 29.2257 21.567 27.7607 22.8973C26.3147 24.2092 24.5548 24.8651 22.481 24.8651Z" fill="black"/>
</g>
<defs>
<clipPath id="clip0_468_569">
<rect width="40" height="46" fill="white" transform="translate(0.908203 0.908203)"/>
</clipPath>
</defs>
</svg>

<svg xmlns="http://www.w3.org/2000/svg" width="41" height="47" fill="none" viewBox="0 0 41 47">
  <g clip-path="url(#a)">
    <path fill="#F43" d="M6.766 6.489c7.81-7.441 20.474-7.441 28.284 0 7.81 7.44 7.81 19.505 0 26.946L20.908 46.908 6.766 33.435c-7.81-7.44-7.81-19.505 0-26.946Z"/>
    <path fill="#fff" d="M8.295 7.946c6.966-6.637 18.26-6.637 25.227 0 6.966 6.637 6.966 17.397 0 24.033-6.966 6.637-18.26 6.637-25.227 0-6.966-6.636-6.966-17.396 0-24.033Z"/>
    <path fill="#000" d="M22.481 14.887h-4.652v6.43h4.652c1.065 0 1.96-.314 2.683-.942.723-.628 1.084-1.404 1.084-2.328 0-.905-.361-1.654-1.084-2.245-.704-.61-1.599-.915-2.683-.915Zm0 9.978h-4.652v5.876h-3.71V11.34h8.647c2.055 0 3.768.637 5.137 1.912 1.37 1.275 2.055 2.873 2.055 4.795 0 1.903-.732 3.52-2.197 4.85-1.446 1.312-3.206 1.968-5.28 1.968Z"/>
  </g>
  <defs>
    <clipPath id="a">
      <path fill="#fff" d="M0 0h40v46H0z" transform="translate(.908 .908)"/>
    </clipPath>
  </defs>
</svg>
